sources/design/Outline/T.svg

<svg:svg xmlns:cc="http://creativecommons.org/ns#" xmlns:dc="http://purl.org/dc/elements/1.1/" xmlns:inkscape="http://www.inkscape.org/namespaces/inkscape" xmlns:rdf="http://www.w3.org/1999/02/22-rdf-syntax-ns#" xmlns:sodipodi="http://sodipodi.sourceforge.net/DTD/sodipodi-0.dtd" xmlns:svg="http://www.w3.org/2000/svg" xml:space="preserve" width="1000" height="1000" version="1.1" style="clip-rule:evenodd;fill-rule:evenodd;image-rendering:optimizeQuality;shape-rendering:geometricPrecision;text-rendering:geometricPrecision" viewBox="0 0 1000 1000" id="svg10" sodipodi:docname="T.svg" inkscape:version="1.0.2 (e86c870879, 2021-01-15)"><svg:metadata id="metadata14"><rdf:RDF><cc:Work rdf:about=""><dc:format>image/svg+xml</dc:format><dc:type rdf:resource="http://purl.org/dc/dcmitype/StillImage" /><dc:title /></cc:Work></rdf:RDF></svg:metadata><sodipodi:namedview pagecolor="#ffffff" bordercolor="#666666" borderopacity="1" objecttolerance="10" gridtolerance="10" guidetolerance="10" inkscape:pageopacity="0" inkscape:pageshadow="2" inkscape:window-width="1920" inkscape:window-height="1127" id="namedview12" showgrid="false" inkscape:zoom="2.4010768" inkscape:cx="312.91612" inkscape:cy="726.76756" inkscape:window-x="0" inkscape:window-y="0" inkscape:window-maximized="1" inkscape:current-layer="svg10" showguides="true" inkscape:guide-bbox="true" inkscape:document-rotation="0" inkscape:pagecheckerboard="0"><sodipodi:guide position="0,1000" orientation="0,1" id="guide16" inkscape:label="" inkscape:locked="true" inkscape:color="rgb(0,0,255)" /><sodipodi:guide position="1763.3122,2036.1693" orientation="1000,0" id="guide18" /><sodipodi:guide position="0,200" orientation="0,1" id="guide20" inkscape:label="base" inkscape:locked="true" inkscape:color="rgb(0,0,255)" /><inkscape:grid type="xygrid" id="grid24" originx="-473.37552" originy="-489.69235" /><sodipodi:guide position="0,0" orientation="0,1" id="guide34" inkscape:label="bottom" inkscape:locked="true" inkscape:color="rgb(0,0,255)" /><sodipodi:guide position="225.05109,1693.3186" orientation="0,1" id="guide44" inkscape:label="" inkscape:locked="false" inkscape:color="rgb(0,0,255)" /><sodipodi:guide position="0,900" orientation="0,1" id="guide46" inkscape:label="" inkscape:locked="true" inkscape:color="rgb(0,0,255)" /><sodipodi:guide position="530.51487,598.4622" orientation="-1,0" id="guide841" inkscape:label="width" inkscape:locked="false" inkscape:color="rgb(0,0,255)" /></sodipodi:namedview>
 <svg:defs id="defs4"><inkscape:path-effect effect="fillet_chamfer" id="path-effect853" is_visible="true" lpeversion="1" satellites_param="F,0,0,1,0,0,0,1 @ F,0,0,1,0,0,0,1 @ F,0,0,1,0,0,0,1 @ F,0,0,1,0,16.714466,0,1 @ F,0,0,1,0,14.923611,0,1 @ F,0,0,1,0,0,0,1 @ F,0,0,1,0,0,0,1 @ F,0,0,1,0,0,0,1 | F,0,0,1,0,14.263408,0,1 @ F,0,0,1,0,12.046139,0,1 @ F,0,0,1,0,0,0,1 @ F,0,0,1,0,0,0,1 @ F,0,0,1,0,18.756175,0,1 @ F,0,0,1,0,16.085372,0,1 @ F,0,0,1,0,0,0,1" unit="px" method="auto" mode="F" radius="0" chamfer_steps="1" flexible="false" use_knot_distance="true" apply_no_radius="true" apply_with_radius="true" only_selected="true" hide_knots="false" /><inkscape:path-effect effect="fillet_chamfer" id="path-effect848" is_visible="true" lpeversion="1" satellites_param="F,0,0,1,0,36.681485,0,1 @ F,0,0,1,0,42.175016,0,1 @ F,0,0,1,0,0,0,1 @ F,0,0,1,0,0,0,1 @ F,0,0,1,0,0,0,1 @ F,0,0,1,0,0,0,1 @ F,0,0,1,0,0,0,1 @ F,0,0,1,0,0,0,1 @ F,0,0,1,0,0,0,1 @ F,0,0,1,0,0,0,1 @ F,0,0,1,0,35.792578,0,1 @ F,0,0,1,0,30.31768,0,1 @ F,0,0,1,0,0,0,1 @ F,0,0,1,0,0,0,1 @ F,0,0,1,0,0,0,1 @ F,0,0,1,0,0,0,1 @ F,0,0,1,0,0,0,1 @ F,0,0,1,0,0,0,1 @ F,0,0,1,0,0,0,1 @ F,0,0,1,0,0,0,1 @ F,0,0,1,0,31.864429,0,1 @ F,0,0,1,0,33.924341,0,1" unit="px" method="auto" mode="F" radius="0" chamfer_steps="1" flexible="false" use_knot_distance="true" apply_no_radius="true" apply_with_radius="true" only_selected="true" hide_knots="false" /><inkscape:path-effect effect="spiro" id="path-effect849" is_visible="true" lpeversion="1" /><inkscape:path-effect effect="spiro" id="path-effect851" is_visible="true" lpeversion="1" />
  <svg:style type="text/css" id="style2">
   
    .fil0 {fill:#EF7F1A;fill-rule:nonzero}
   
  </svg:style>
 <inkscape:path-effect effect="spiro" id="path-effect1214" is_visible="true" lpeversion="1" /><inkscape:path-effect effect="spiro" id="path-effect1195" is_visible="true" lpeversion="1" /><inkscape:path-effect effect="spiro" id="path-effect992" is_visible="true" lpeversion="1" /><inkscape:path-effect effect="spiro" id="path-effect1060" is_visible="true" lpeversion="1" /><inkscape:path-effect effect="spiro" id="path-effect1047" is_visible="true" lpeversion="1" /><inkscape:path-effect effect="spiro" id="path-effect1085" is_visible="true" lpeversion="1" /><inkscape:path-effect effect="spiro" id="path-effect1286" is_visible="true" lpeversion="1" /></svg:defs>
 
<svg:g id="path847"><svg:path style="color:#000000;clip-rule:nonzero;fill:#1a5fb4;fill-rule:nonzero;stroke-linecap:round;stroke-linejoin:round;-inkscape-stroke:none;paint-order:fill stroke markers;shape-rendering:auto" d="M 442.39453,-30.710937 C 421.97342999999995,-30.591832 401.55307999999997,-30.354470000000003 381.13477,-29.996094000000003 C 294.9462,-28.483339000000004 208.86118,-24.838656000000004 122.93945000000002,-19.589844000000003 C 87.36268400000003,-17.416520000000002 51.80244500000002,-14.967109000000004 16.263672000000028,-12.242188000000002 C -10.053226999999971,-10.224349000000002 -31.089260999999972,19.008791 -24.71874999999997,44.580078 L 3.2304688,156.76562 C 9.2673531,180.99773000000002 38.404712999999994,196.15083 61.621094,187.63281 C 102.77445,172.53377 144.89874,160.06222 187.63477,150.28320000000002 C 191.27172000000002,164.89752000000001 194.31368,179.65946000000002 196.64648,194.53125000000003 C 219.70162,341.50934000000007 177.04351,496.60495000000003 169.24608999999998,658.4082000000001 C 167.20490999999998,700.7645500000001 167.73569999999998,743.2401800000001 170.83202999999997,785.5312500000001 C 172.70851,811.161 193.44628,830.0 218.82422,830.0 L 331.70117,830.0 C 343.36714,830.0 357.40078,824.53045 365.38477,812.93945 C 373.36875,801.3484599999999 373.50076,786.65067 369.57812,775.81836 C 354.07791000000003,733.01468 343.63618,688.34944 338.56641,643.11523 C 321.88478000000003,494.27633000000003 364.16108,340.10157 377.37109000000004,179.32421999999997 C 378.85778000000005,161.22990999999996 379.83489000000003,143.09838999999997 380.52930000000003,124.95702999999997 C 424.90053,123.31558999999997 469.37587,124.42893999999997 513.58398,128.47851999999997 C 525.22826,129.54515999999998 538.5187999999999,125.51091999999997 547.45117,116.14647999999997 C 556.38355,106.78203999999997 559.82199,93.12936399999997 558.08594,81.47265599999997 L 546.97656,6.8691406 C 543.63735,-15.551986999999999 526.3765999999999,-30.577252 503.66015999999996,-30.710937 C 483.23905999999994,-30.831115 462.81562999999994,-30.830043 442.39453,-30.710937 M 442.74413999999996,29.287109 C 458.37963999999994,29.195919 474.01667,29.238359000000003 489.65234,29.289109 L 495.25586,66.912156 C 457.36222,64.272786 419.34586,63.56535099999999 381.38671999999997,64.863328 C 381.31192,57.368249999999996 381.27455,49.873563999999995 381.06444999999997,42.380905999999996 A 30.003,30.003 0.0 0,0 377.91796999999997,30.097702999999996 C 379.34114,30.071552999999994 380.76433999999995,30.021122999999996 382.18749999999994,29.996140999999994 C 402.37148999999994,29.641877999999995 422.55737999999997,29.404894999999993 442.74413999999996,29.287155999999996 L 442.74413999999996,29.287109 M 164.4375,38.167969 A 30.003,30.003 0.0 0,0 159.84375,68.5 C 163.35742,76.526442 166.60435999999999,84.668106 169.70117,92.867187 C 131.68007,101.73749000000001 94.15054199999999,112.67727 57.28710899999999,125.54492 L 37.576172,46.429687 C 67.239268,44.228471 96.908349,42.110544000000004 126.59766,40.296875 C 139.20928,39.526452 151.82418,38.866609 164.4375,38.167969 M 320.32227,128.91406 C 319.66101,144.09492 318.81652,159.26646 317.57227,174.41016000000002 C 304.99522,327.48367 260.54625,485.68675 278.93945,649.79687 C 283.50967,690.57388 292.08881,730.86244 304.37109000000004,770.0 L 230.02539000000004,770.0 C 227.78672000000003,733.81406 227.43072000000004,697.50833 229.17578000000003,661.29687 C 236.52954000000003,508.69994 281.64466000000004,349.21695 255.92187000000004,185.23242 C 253.46576000000005,169.57451 250.28789000000003,154.04235 246.54102000000003,138.64844 C 252.01331000000002,137.72578 257.48058000000003,136.77187 262.96680000000003,135.9375 C 282.01053,133.04122 301.14362000000006,130.74267 320.32227,128.91406" id="path26186" /></svg:g></svg:svg>

<svg:svg xmlns:cc="http://creativecommons.org/ns#" xmlns:dc="http://purl.org/dc/elements/1.1/" xmlns:inkscape="http://www.inkscape.org/namespaces/inkscape" xmlns:rdf="http://www.w3.org/1999/02/22-rdf-syntax-ns#" xmlns:sodipodi="http://sodipodi.sourceforge.net/DTD/sodipodi-0.dtd" xmlns:svg="http://www.w3.org/2000/svg" xml:space="preserve" width="1000" height="1000" version="1.1" style="clip-rule:evenodd;fill-rule:evenodd;image-rendering:optimizeQuality;shape-rendering:geometricPrecision;text-rendering:geometricPrecision" viewBox="0 0 1000 1000" id="svg10" sodipodi:docname="T.svg" inkscape:version="1.0.2 (e86c870879, 2021-01-15)"><svg:metadata id="metadata14"><rdf:RDF><cc:Work rdf:about=""><dc:format>image/svg+xml</dc:format><dc:type rdf:resource="http://purl.org/dc/dcmitype/StillImage" /><dc:title /></cc:Work></rdf:RDF></svg:metadata><sodipodi:namedview pagecolor="#ffffff" bordercolor="#666666" borderopacity="1" objecttolerance="10" gridtolerance="10" guidetolerance="10" inkscape:pageopacity="0" inkscape:pageshadow="2" inkscape:window-width="1920" inkscape:window-height="1127" id="namedview12" showgrid="false" inkscape:zoom="2.4010768" inkscape:cx="312.91612" inkscape:cy="726.76756" inkscape:window-x="0" inkscape:window-y="0" inkscape:window-maximized="1" inkscape:current-layer="svg10" showguides="true" inkscape:guide-bbox="true" inkscape:document-rotation="0" inkscape:pagecheckerboard="0"><sodipodi:guide position="0,1000" orientation="0,1" id="guide16" inkscape:label="" inkscape:locked="true" inkscape:color="rgb(0,0,255)" /><sodipodi:guide position="1763.3122,2036.1693" orientation="1000,0" id="guide18" /><sodipodi:guide position="0,200" orientation="0,1" id="guide20" inkscape:label="base" inkscape:locked="true" inkscape:color="rgb(0,0,255)" /><inkscape:grid type="xygrid" id="grid24" originx="-473.37552" originy="-489.69235" /><sodipodi:guide position="0,0" orientation="0,1" id="guide34" inkscape:label="bottom" inkscape:locked="true" inkscape:color="rgb(0,0,255)" /><sodipodi:guide position="225.05109,1693.3186" orientation="0,1" id="guide44" inkscape:label="" inkscape:locked="false" inkscape:color="rgb(0,0,255)" /><sodipodi:guide position="0,900" orientation="0,1" id="guide46" inkscape:label="" inkscape:locked="true" inkscape:color="rgb(0,0,255)" /><sodipodi:guide position="530.51487,598.4622" orientation="-1,0" id="guide841" inkscape:label="width" inkscape:locked="false" inkscape:color="rgb(0,0,255)" /></sodipodi:namedview>
 <svg:defs id="defs4"><inkscape:path-effect effect="fillet_chamfer" id="path-effect853" is_visible="true" lpeversion="1" satellites_param="F,0,0,1,0,0,0,1 @ F,0,0,1,0,0,0,1 @ F,0,0,1,0,0,0,1 @ F,0,0,1,0,16.714466,0,1 @ F,0,0,1,0,14.923611,0,1 @ F,0,0,1,0,0,0,1 @ F,0,0,1,0,0,0,1 @ F,0,0,1,0,0,0,1 | F,0,0,1,0,14.263408,0,1 @ F,0,0,1,0,12.046139,0,1 @ F,0,0,1,0,0,0,1 @ F,0,0,1,0,0,0,1 @ F,0,0,1,0,18.756175,0,1 @ F,0,0,1,0,16.085372,0,1 @ F,0,0,1,0,0,0,1" unit="px" method="auto" mode="F" radius="0" chamfer_steps="1" flexible="false" use_knot_distance="true" apply_no_radius="true" apply_with_radius="true" only_selected="true" hide_knots="false" /><inkscape:path-effect effect="fillet_chamfer" id="path-effect848" is_visible="true" lpeversion="1" satellites_param="F,0,0,1,0,36.681485,0,1 @ F,0,0,1,0,42.175016,0,1 @ F,0,0,1,0,0,0,1 @ F,0,0,1,0,0,0,1 @ F,0,0,1,0,0,0,1 @ F,0,0,1,0,0,0,1 @ F,0,0,1,0,0,0,1 @ F,0,0,1,0,0,0,1 @ F,0,0,1,0,0,0,1 @ F,0,0,1,0,0,0,1 @ F,0,0,1,0,35.792578,0,1 @ F,0,0,1,0,30.31768,0,1 @ F,0,0,1,0,0,0,1 @ F,0,0,1,0,0,0,1 @ F,0,0,1,0,0,0,1 @ F,0,0,1,0,0,0,1 @ F,0,0,1,0,0,0,1 @ F,0,0,1,0,0,0,1 @ F,0,0,1,0,0,0,1 @ F,0,0,1,0,0,0,1 @ F,0,0,1,0,31.864429,0,1 @ F,0,0,1,0,33.924341,0,1" unit="px" method="auto" mode="F" radius="0" chamfer_steps="1" flexible="false" use_knot_distance="true" apply_no_radius="true" apply_with_radius="true" only_selected="true" hide_knots="false" /><inkscape:path-effect effect="spiro" id="path-effect849" is_visible="true" lpeversion="1" /><inkscape:path-effect effect="spiro" id="path-effect851" is_visible="true" lpeversion="1" />
  <svg:style type="text/css" id="style2">
   
    .fil0 {fill:#EF7F1A;fill-rule:nonzero}
   
  </svg:style>
 <inkscape:path-effect effect="spiro" id="path-effect1214" is_visible="true" lpeversion="1" /><inkscape:path-effect effect="spiro" id="path-effect1195" is_visible="true" lpeversion="1" /><inkscape:path-effect effect="spiro" id="path-effect992" is_visible="true" lpeversion="1" /><inkscape:path-effect effect="spiro" id="path-effect1060" is_visible="true" lpeversion="1" /><inkscape:path-effect effect="spiro" id="path-effect1047" is_visible="true" lpeversion="1" /><inkscape:path-effect effect="spiro" id="path-effect1085" is_visible="true" lpeversion="1" /><inkscape:path-effect effect="spiro" id="path-effect1286" is_visible="true" lpeversion="1" /></svg:defs>
 
<svg:g id="path847"><svg:path style="color:#000000;clip-rule:nonzero;fill:#1a5fb4;fill-rule:nonzero;stroke-linecap:round;stroke-linejoin:round;-inkscape-stroke:none;shape-rendering:auto" d="m 442.39453,-30.710937 c -20.4211,0.119105 -40.84145,0.356467 -61.25976,0.714843 -86.18857,1.512755 -172.27359,5.157438 -258.19532,10.40625 -35.576766,2.173324 -71.137005,4.622735 -106.675778,7.347656 -26.316899,2.017839 -47.352933,31.250979 -40.982422,56.822266 L 3.2304688,156.76562 c 6.0368843,24.23211 35.1742442,39.38521 58.3906252,30.86719 41.153356,-15.09904 83.277646,-27.57059 126.013676,-37.34961 3.63695,14.61432 6.67891,29.37626 9.01171,44.24805 23.05514,146.97809 -19.60297,302.0737 -27.40039,463.87695 -2.04118,42.35635 -1.51039,84.83198 1.58594,127.12305 C 172.70851,811.161 193.44628,830 218.82422,830 h 112.87695 c 11.66597,0 25.69961,-5.46955 33.6836,-17.06055 7.98398,-11.59099 8.11599,-26.28878 4.19335,-37.12109 -15.50021,-42.80368 -25.94194,-87.46892 -31.01171,-132.70313 -16.68163,-148.8389 25.59467,-303.01366 38.80468,-463.79101 1.48669,-18.09431 2.4638,-36.22583 3.15821,-54.36719 44.37123,-1.64144 88.84657,-0.52809 133.05468,3.52149 11.64428,1.06664 24.93482,-2.9676 33.86719,-12.33204 8.93238,-9.36444 12.37082,-23.017116 10.63477,-34.673824 L 546.97656,6.8691406 c -3.33921,-22.4211276 -20.59996,-37.4463926 -43.3164,-37.5800776 -20.4211,-0.120178 -40.84453,-0.119106 -61.26563,0 z m 0.34961,59.998046 c 15.6355,-0.09119 31.27253,-0.04875 46.9082,0.002 l 5.60352,37.623047 c -37.89364,-2.63937 -75.91,-3.346805 -113.86914,-2.048828 -0.0748,-7.495078 -0.11217,-14.989764 -0.32227,-22.482422 a 30.003,30.003 0 0 0 -3.14648,-12.283203 c 1.42317,-0.02615 2.84637,-0.07658 4.26953,-0.101562 20.18399,-0.354263 40.36988,-0.591246 60.55664,-0.708985 z M 164.4375,38.167969 A 30.003,30.003 0 0 0 159.84375,68.5 c 3.51367,8.026442 6.76061,16.168106 9.85742,24.367187 -38.0211,8.870303 -75.550628,19.810083 -112.414061,32.677733 L 37.576172,46.429687 c 29.663096,-2.201216 59.332177,-4.319143 89.021488,-6.132812 12.61162,-0.770423 25.22652,-1.430266 37.83984,-2.128906 z m 155.88477,90.746091 c -0.66126,15.18086 -1.50575,30.3524 -2.75,45.4961 -12.57705,153.07351 -57.02602,311.27659 -38.63282,475.38671 4.57022,40.77701 13.14936,81.06557 25.43164,120.20313 h -74.3457 c -2.23867,-36.18594 -2.59467,-72.49167 -0.84961,-108.70313 7.35376,-152.59693 52.46888,-312.07992 26.74609,-476.06445 -2.45611,-15.65791 -5.63398,-31.19007 -9.38085,-46.58398 5.47229,-0.92266 10.93956,-1.87657 16.42578,-2.71094 19.04373,-2.89628 38.17682,-5.19483 57.35547,-7.02344 z" id="path26104" /></svg:g></svg:svg>
